X:1
T:Christmas day in the Morning
R:Jig
M:6/8
K:Dmix
A|d2f edB | AFF FEF | AFF FEF |AFE D2 A|
d2f edB | AFF FEF | AFE DEF | E3 D2 :|
A|A2 B d2e| ~f3 fed | ~f3 fed | efe edB|
A2 B d2e| ~f3 fed |e2 e f2 e|d3 d2:|
